images/paint.svg

<svg width="7" height="7" viewBox="0 0 7 7" fill="none" xmlns="http://www.w3.org/2000/svg">
<path d="M4.2001 3.50012C4.3001 3.50012 4.30008 3.6001 4.30008 3.6001C4.30008 3.7001 4.2001 3.70013 4.2001 3.70013C4.1001 3.70013 4.1001 3.6001 4.1001 3.6001C4.1001 3.5001 4.2001 3.50012 4.2001 3.50012Z" fill="white"/>
<path d="M4.4 4.20013C4.4 4.10013 4.4 4.1001 4.3 4.1001C4.2 4.1001 4.20002 4.10013 4.20002 4.20013C4.20002 4.40013 4.00002 4.60013 3.70002 4.70013C3.40002 4.80013 3.00002 4.80012 2.70002 4.50012C2.70002 4.50012 2.60001 4.40012 2.50001 4.50012C2.50001 4.50012 2.40001 4.60013 2.50001 4.70013C2.60001 4.90013 2.80002 5.00012 3.10002 5.00012C3.20002 5.00012 3.3 5.00012 3.4 5.00012C3.5 5.00012 3.7 5.00015 3.8 4.90015C4.1 4.80015 4.3 4.60013 4.4 4.20013Z" fill="white"/>
<path d="M5.89999 3.00012C5.69999 2.70012 5.4 2.60012 5 2.50012C5.3 2.30012 5.59999 2.00011 5.89999 1.80011C6.19999 1.50011 6.30001 1.3001 6.20001 1.1001C6.10001 0.900098 5.79999 0.900098 5.29999 1.1001C4.89999 1.3001 4.30001 1.50011 3.70001 1.80011C3.60001 1.90011 3.49999 1.90012 3.39999 2.00012C3.29999 1.80012 3.4 1.60015 3.5 1.40015C3.6 1.30015 3.60001 1.10015 3.60001 0.900146C3.50001 0.700146 3.40001 0.600098 3.10001 0.600098C2.40001 0.600098 1.60001 0.900146 1.10001 1.40015C0.500005 1.90015 0.200005 2.60015 0.100005 3.40015C5.26756e-06 4.30015 0.299993 5.10011 0.899993 5.80011C1.49999 6.40011 2.30001 6.80011 3.20001 6.80011C3.70001 6.80011 4.1 6.70012 4.5 6.50012C4.9 6.30012 5.2 6.10015 5.5 5.90015C5.8 5.60015 5.90001 5.30012 6.10001 5.00012C6.20001 4.70012 6.29999 4.40012 6.29999 4.00012C6.29999 3.70012 6.19999 3.30012 5.89999 3.00012ZM3.89999 2.1001C4.39999 1.8001 4.89999 1.60015 5.39999 1.40015C5.89999 1.20015 6.10001 1.20011 6.10001 1.30011C6.10001 1.30011 6.09999 1.50013 5.79999 1.70013C5.49999 1.90013 5.19999 2.20012 4.79999 2.50012C4.69999 2.60012 4.49999 2.70013 4.39999 2.70013C4.19999 2.80013 3.99999 2.90012 3.79999 3.00012C3.79999 2.90012 3.70001 2.80013 3.70001 2.70013C3.60001 2.60013 3.6 2.50015 3.5 2.40015C3.6 2.40015 3.60001 2.30011 3.70001 2.30011C3.60001 2.30011 3.69999 2.2001 3.89999 2.1001ZM2.5 3.50012C2.5 3.40012 2.49999 3.40011 2.39999 3.30011C2.39999 3.20011 2.29999 3.20013 2.29999 3.20013C2.49999 3.00013 2.80001 2.8001 3.10001 2.6001C3.20001 2.7001 3.19999 2.80015 3.29999 2.90015C3.39999 3.00015 3.39999 3.10013 3.39999 3.20013C3.09999 3.30013 2.8 3.50012 2.5 3.50012ZM2.10001 3.30011C2.20001 3.30011 2.20001 3.40015 2.20001 3.40015C2.20001 3.50015 2.30001 3.5001 2.20001 3.6001C2.20001 3.7001 2.1 3.80015 2 3.90015C1.9 4.00015 1.50001 4.00012 1.20001 4.00012C1.30001 3.70012 1.60001 3.40011 1.70001 3.30011C1.90001 3.30011 2.00001 3.30011 2.10001 3.30011ZM6.10001 4.20013C6.10001 5.40013 4.99999 6.70013 3.29999 6.70013C2.49999 6.70013 1.70001 6.40011 1.20001 5.80011C0.700011 5.20011 0.399999 4.4001 0.499999 3.6001C0.599999 2.2001 1.89999 1.00012 3.29999 1.00012C3.39999 1.00012 3.5 1.0001 3.5 1.1001C3.5 1.2001 3.5 1.30011 3.5 1.30011C3.3 1.60011 3.19999 1.90013 3.39999 2.20013C3.29999 2.20013 3.30001 2.30011 3.20001 2.30011C2.80001 2.60011 2.49999 2.80012 2.29999 3.00012C2.09999 2.90012 1.99999 3.00012 1.79999 3.00012C1.49999 3.10012 1.20001 3.80012 1.20001 4.00012V4.1001L1.29999 4.20013C1.39999 4.20013 1.59999 4.20013 1.79999 4.20013C2.09999 4.20013 2.3 4.2001 2.5 4.1001C2.6 4.0001 2.79999 3.90013 2.79999 3.70013C3.09999 3.60013 3.49999 3.50011 3.89999 3.30011C4.09999 3.20011 4.40001 3.10015 4.60001 2.90015C4.70001 2.80015 4.8 2.80013 5 2.70013C5.7 2.80013 6.10001 3.50013 6.10001 4.20013Z" fill="white"/>
<path d="M2.30005 2.40015C2.60005 2.40015 2.80005 2.20015 2.80005 1.90015C2.80005 1.60015 2.60005 1.40015 2.30005 1.40015C2.00005 1.40015 1.80005 1.60015 1.80005 1.90015C1.80005 2.20015 2.00005 2.40015 2.30005 2.40015ZM2.30005 1.70013C2.40005 1.70013 2.50006 1.80015 2.50006 1.90015C2.50006 2.00015 2.40005 2.1001 2.30005 2.1001C2.20005 2.1001 2.10007 2.00015 2.10007 1.90015C2.10007 1.80015 2.20005 1.70013 2.30005 1.70013Z" fill="white"/>
<path d="M1.69995 4.7002C1.39995 4.7002 1.19995 4.9002 1.19995 5.2002C1.19995 5.5002 1.39995 5.7002 1.69995 5.7002C1.99995 5.7002 2.19995 5.5002 2.19995 5.2002C2.19995 4.9002 1.99995 4.7002 1.69995 4.7002ZM1.69995 5.40021C1.59995 5.40021 1.49994 5.3002 1.49994 5.2002C1.49994 5.1002 1.59995 5.00018 1.69995 5.00018C1.79995 5.00018 1.89993 5.1002 1.89993 5.2002C1.89993 5.3002 1.79995 5.40021 1.69995 5.40021Z" fill="white"/>
<path d="M2.8999 5.40015C2.5999 5.40015 2.3999 5.60015 2.3999 5.90015C2.3999 6.20015 2.5999 6.40015 2.8999 6.40015C3.1999 6.40015 3.3999 6.20015 3.3999 5.90015C3.3999 5.70015 3.1999 5.40015 2.8999 5.40015ZM2.8999 6.20013C2.7999 6.20013 2.69992 6.10012 2.69992 6.00012C2.69992 5.90012 2.7999 5.80011 2.8999 5.80011C2.9999 5.80011 3.09991 5.90012 3.09991 6.00012C3.09991 6.10012 2.9999 6.20013 2.8999 6.20013Z" fill="white"/>
<path d="M4.3999 5.2002C4.0999 5.2002 3.8999 5.4002 3.8999 5.7002C3.8999 6.0002 4.0999 6.2002 4.3999 6.2002C4.6999 6.2002 4.8999 6.0002 4.8999 5.7002C4.7999 5.4002 4.5999 5.2002 4.3999 5.2002ZM4.3999 5.90021C4.2999 5.90021 4.19992 5.8002 4.19992 5.7002C4.19992 5.6002 4.2999 5.50018 4.3999 5.50018C4.4999 5.50018 4.59991 5.6002 4.59991 5.7002C4.59991 5.8002 4.4999 5.90021 4.3999 5.90021Z" fill="white"/>
<path d="M5.30005 4.00012C5.00005 4.00012 4.80005 4.20012 4.80005 4.50012C4.80005 4.80012 5.00005 5.00012 5.30005 5.00012C5.60005 5.00012 5.80005 4.80012 5.80005 4.50012C5.80005 4.20012 5.60005 4.00012 5.30005 4.00012ZM5.30005 4.70013C5.20005 4.70013 5.10007 4.60012 5.10007 4.50012C5.10007 4.40012 5.20005 4.30011 5.30005 4.30011C5.40005 4.30011 5.50006 4.40012 5.50006 4.50012C5.60006 4.60012 5.50005 4.70013 5.30005 4.70013Z" fill="white"/>
</svg>

<svg width="7" height="7" fill="none" xmlns="http://www.w3.org/2000/svg"><path d="M4.2 3.5c.1 0 .1.1.1.1 0 .1-.1.1-.1.1-.1 0-.1-.1-.1-.1 0-.1.1-.1.1-.1ZM4.4 4.2c0-.1 0-.1-.1-.1s-.1 0-.1.1c0 .2-.2.4-.5.5-.3.1-.7.1-1-.2 0 0-.1-.1-.2 0 0 0-.1.1 0 .2.1.2.3.3.6.3h.3c.1 0 .3 0 .4-.1.3-.1.5-.3.6-.7Z" fill="#fff"/><path d="M5.9 3c-.2-.3-.5-.4-.9-.5.3-.2.6-.5.9-.7.3-.3.4-.5.3-.7-.1-.2-.4-.2-.9 0-.4.2-1 .4-1.6.7-.1.1-.2.1-.3.2-.1-.2 0-.4.1-.6.1-.1.1-.3.1-.5-.1-.2-.2-.3-.5-.3-.7 0-1.5.3-2 .8-.6.5-.9 1.2-1 2-.1.9.2 1.7.8 2.4.6.6 1.4 1 2.3 1 .5 0 .9-.1 1.3-.3.4-.2.7-.4 1-.6.3-.3.4-.6.6-.9.1-.3.2-.6.2-1 0-.3-.1-.7-.4-1Zm-2-.9c.5-.3 1-.5 1.5-.7.5-.2.7-.2.7-.1 0 0 0 .2-.3.4s-.6.5-1 .8c-.1.1-.3.2-.4.2l-.6.3c0-.1-.1-.2-.1-.3-.1-.1-.1-.2-.2-.3.1 0 .1-.1.2-.1-.1 0 0-.1.2-.2ZM2.5 3.5c0-.1 0-.1-.1-.2 0-.1-.1-.1-.1-.1.2-.2.5-.4.8-.6.1.1.1.2.2.3.1.1.1.2.1.3-.3.1-.6.3-.9.3Zm-.4-.2c.1 0 .1.1.1.1 0 .1.1.1 0 .2 0 .1-.1.2-.2.3-.1.1-.5.1-.8.1.1-.3.4-.6.5-.7h.4Zm4 .9c0 1.2-1.1 2.5-2.8 2.5-.8 0-1.6-.3-2.1-.9C.7 5.2.4 4.4.5 3.6.6 2.2 1.9 1 3.3 1c.1 0 .2 0 .2.1v.2c-.2.3-.3.6-.1.9-.1 0-.1.1-.2.1-.4.3-.7.5-.9.7-.2-.1-.3 0-.5 0-.3.1-.6.8-.6 1v.1l.1.1h.5c.3 0 .5 0 .7-.1.1-.1.3-.2.3-.4.3-.1.7-.2 1.1-.4.2-.1.5-.2.7-.4.1-.1.2-.1.4-.2.7.1 1.1.8 1.1 1.5Z" fill="#fff"/><path d="M2.3 2.4c.3 0 .5-.2.5-.5s-.2-.5-.5-.5-.5.2-.5.5.2.5.5.5Zm0-.7c.1 0 .2.1.2.2s-.1.2-.2.2-.2-.1-.2-.2.1-.2.2-.2ZM1.7 4.7c-.3 0-.5.2-.5.5s.2.5.5.5.5-.2.5-.5-.2-.5-.5-.5Zm0 .7c-.1 0-.2-.1-.2-.2s.1-.2.2-.2.2.1.2.2-.1.2-.2.2ZM2.9 5.4c-.3 0-.5.2-.5.5s.2.5.5.5.5-.2.5-.5c0-.2-.2-.5-.5-.5Zm0 .8c-.1 0-.2-.1-.2-.2s.1-.2.2-.2.2.1.2.2-.1.2-.2.2ZM4.4 5.2c-.3 0-.5.2-.5.5s.2.5.5.5.5-.2.5-.5c-.1-.3-.3-.5-.5-.5Zm0 .7c-.1 0-.2-.1-.2-.2s.1-.2.2-.2.2.1.2.2-.1.2-.2.2ZM5.3 4c-.3 0-.5.2-.5.5s.2.5.5.5.5-.2.5-.5-.2-.5-.5-.5Zm0 .7c-.1 0-.2-.1-.2-.2s.1-.2.2-.2.2.1.2.2c.1.1 0 .2-.2.2Z" fill="#fff"/></svg>
